images/headerIcons/logoBlue.svg

<svg width="313" height="33" viewBox="0 0 313 33" fill="none" xmlns="http://www.w3.org/2000/svg">
<path fill-rule="evenodd" clip-rule="evenodd" d="M22.6879 0.255358C22.5421 0.400329 22.4274 2.60351 22.4274 5.25931V10.0047L21.5417 9.82945C21.0548 9.73298 18.5987 9.58065 16.0843 9.491C10.8962 9.3057 8.91017 9.61853 5.86305 11.1012C3.63644 12.1847 1.4368 14.5249 0.621477 16.6777C-0.208837 18.8708 -0.206929 22.5196 0.625837 24.7356C1.88589 28.0876 5.11231 30.5701 9.73149 31.7413C13.3258 32.6529 19.8686 32.4226 25.659 31.1808L27.0643 30.8794L26.994 15.4414L26.9236 0.00356605L24.936 2.33926e-05C23.8427 -0.00188412 22.8312 0.113112 22.6879 0.255358ZM294.294 2.76701C294.194 2.86674 294.112 4.46088 294.112 6.30954V9.6703H291.689H289.267L289.144 10.6922C289.077 11.2544 289.08 12.2354 289.15 12.8722L289.278 14.0303H291.695H294.112V20.112C294.112 28.1165 294.524 29.5687 297.203 31.0012C298.27 31.5716 298.725 31.6119 305.04 31.6953L311.745 31.7841L311.915 30.5421C312.009 29.8589 312.011 28.9299 311.921 28.4776L311.756 27.6554L306.681 27.6549C298.769 27.6544 298.675 27.559 298.514 19.4172L298.408 14.0303H304.926C309.631 14.0303 311.534 13.9393 311.77 13.7033C312.109 13.3641 312.222 10.8571 311.932 10.1014C311.787 9.72453 310.928 9.6703 305.107 9.6703H298.447L298.489 6.42208C298.512 4.63556 298.449 3.04142 298.349 2.87955C298.153 2.56291 294.596 2.46399 294.294 2.76701ZM124.207 8.86697C122.102 9.2046 121.224 9.54114 119.556 10.6486C117.833 11.792 116.175 13.7358 115.168 15.7942C114.245 17.6794 113.995 21.4266 114.644 23.6581C115.574 26.8576 117.777 29.527 120.646 30.9325C122.981 32.0765 124.694 32.3117 130.075 32.2264L134.795 32.1517L134.758 30.108C134.738 28.9839 134.716 27.92 134.71 27.744C134.701 27.5132 133.198 27.3993 129.316 27.3352C124.414 27.2546 123.837 27.1941 122.844 26.6575C120.381 25.3258 119.164 23.2905 119.168 20.511C119.172 18.3994 120.062 16.3155 121.384 15.325C123.514 13.73 123.84 13.6567 129.521 13.4979C134.813 13.3496 134.834 13.3466 134.815 12.736C134.804 12.3989 134.774 11.3258 134.747 10.3516L134.698 8.5803L130.134 8.61436C127.624 8.63289 124.956 8.7468 124.207 8.86697ZM149.936 8.82909C145.632 9.43623 141.915 12.7403 140.329 17.3685C140.18 17.8034 139.635 17.8454 134.162 17.8454C130.86 17.8454 128.153 17.9375 128.147 18.0497C128.124 18.4773 128.115 22.3575 128.136 22.6823C128.153 22.9439 129.553 23.0229 134.162 23.0229C139.637 23.0229 140.179 23.0649 140.325 23.4998C140.948 25.3672 142.171 27.465 143.331 28.6555C145.788 31.1786 148.853 32.288 153.365 32.288C157.879 32.288 160.712 31.2675 163.252 28.7272C169.335 22.6422 166.975 12.1844 158.894 9.41225C156.973 8.75334 152.525 8.46394 149.936 8.82909ZM39.05 10.033C36.8092 10.6974 34.3578 12.1792 33.0664 13.6502C30.4335 16.6488 29.7075 21.1266 31.2028 25.1443C31.8987 27.0148 34.1749 29.4706 36.12 30.4499C41.0673 32.9409 48.6543 32.9112 55.0595 30.3758C56.4683 29.818 57.3076 29.3346 57.3076 29.0806C57.3076 28.5841 55.7108 25.7479 55.4312 25.7479C55.3205 25.7479 54.7284 25.9902 54.1155 26.2864C51.5518 27.5252 48.4034 28.2004 45.193 28.2004C41.7573 28.2004 39.8304 27.7255 37.9327 26.4104C36.891 25.6882 35.2431 23.321 35.2374 22.5379C35.2355 22.2594 37.5616 22.1937 46.7482 22.2119L58.2614 22.2346L58.2491 19.972C58.2385 18.0018 58.1249 17.4769 57.3706 15.9136C55.871 12.8057 52.7519 10.5151 48.9148 9.70328C46.4029 9.1719 41.3891 9.33949 39.05 10.033ZM72.704 9.73353C69.2568 9.84879 65.4554 10.0965 64.2564 10.2837L62.0764 10.6241V21.1154V31.6067L64.1883 31.6863L66.3002 31.7659V23.0654V14.3647L67.1858 14.1903C67.6731 14.0946 70.7403 13.942 74.0022 13.8513C80.7436 13.6641 80.3193 13.8483 80.1466 11.1808C80.0798 10.1477 79.9446 9.82944 79.5165 9.69483C79.2168 9.60054 76.1511 9.61798 72.704 9.73353ZM89.8716 9.81827C88.6726 10.0344 87.0785 10.3725 86.3291 10.5693L84.9666 10.9274L84.5303 12.6834C84.2905 13.6488 84.1785 14.5358 84.2821 14.6538C84.3853 14.7721 86.0511 14.5486 87.9837 14.1573C94.4475 12.8485 100.424 13.0131 102.941 14.5688C103.982 15.2122 104.723 16.5782 104.723 17.8541C104.723 18.7204 104.707 18.7315 103.701 18.5607C101.502 18.1871 93.3828 18.0576 91.2341 18.3618C86.2814 19.0626 83.4651 20.7944 82.6721 23.626C82.0266 25.9316 82.9694 28.7286 84.8516 30.0922C87.0297 31.6697 88.9781 32.0863 94.8216 32.2228C99.5692 32.3338 107.117 31.8416 108.879 31.3062C109.318 31.1726 109.356 30.566 109.354 23.6178C109.353 19.4052 109.232 15.6389 109.079 15.0882C108.469 12.8945 106.656 11.1252 104.033 10.1657C102.61 9.64523 101.76 9.56185 97.2292 9.49808C93.6177 9.4474 91.3922 9.54414 89.8716 9.81827ZM177.754 9.6703C173.608 10.2082 171.567 10.5418 171.261 10.7309C171.014 10.8835 170.952 13.466 171.006 21.2699L171.077 31.6067L173.189 31.6863L175.301 31.7659V22.9338V14.1017L176.323 13.9306C176.885 13.8366 179.082 13.6161 181.206 13.4406C187.688 12.9052 191.18 13.7475 192.365 16.133C192.816 17.0393 192.894 18.0378 193.014 24.3854L193.15 31.6067L195.235 31.6857L197.32 31.765L197.516 28.8899C197.841 24.1195 197.528 16.0381 196.957 14.4573C196.269 12.5531 194.606 10.9884 192.449 10.2153C190.871 9.64932 190.145 9.58011 185.111 9.51389C182.039 9.47329 178.728 9.54386 177.754 9.6703ZM209.364 9.58338C207.557 9.76922 202.414 10.5112 201.935 10.6551C201.486 10.7897 201.459 11.4685 201.526 21.2029L201.597 31.6067H203.777H205.958L206.029 22.8529L206.101 14.0987L207.119 13.9382C214.56 12.764 220.469 13.197 222.233 15.0457C223.536 16.4115 223.627 16.9848 223.747 24.6007L223.86 31.765L225.945 31.6857L228.03 31.6067L228.103 23.9933C228.185 15.2923 228.025 14.235 226.335 12.3643C224.226 10.0297 221.761 9.39017 215.086 9.44549C212.463 9.46729 209.888 9.52915 209.364 9.58338ZM240.758 9.82182C236.855 10.8726 233.988 13.1455 232.453 16.4082C231.657 18.098 231.586 18.4732 231.609 20.8429C231.64 24.1448 232.298 25.9738 234.206 28.0607C235.856 29.8665 238.548 31.2827 241.519 31.9084C244.092 32.4504 250.116 32.285 252.555 31.6054C255.05 30.9107 258.414 29.5221 258.414 29.1877C258.414 28.6841 256.95 25.9646 256.609 25.8332C256.432 25.7654 255.794 25.9616 255.19 26.2695C252.732 27.5235 249.556 28.2004 246.131 28.2004C242.29 28.2004 240.64 27.7086 238.674 25.9782C237.537 24.9773 236.341 23.2 236.341 22.5109C236.341 22.349 240.716 22.2373 247.852 22.2171C254.192 22.1989 259.471 22.0749 259.605 21.9411C259.988 21.5582 259.294 17.6225 258.562 16.0234C257.199 13.045 254.11 10.6715 250.486 9.81746C248.25 9.29016 242.724 9.29262 240.758 9.82182ZM271.466 9.81391C267.815 10.7001 264.64 13.0226 263.376 15.7318C262.412 17.798 262.063 20.4502 262.466 22.6403C263.379 27.5939 266.701 30.714 272.337 31.9106C275.329 32.5455 280.866 32.2989 284.401 31.3729C287.892 30.4584 287.944 30.4107 287.247 28.7986C286.332 26.6832 286.308 26.6736 283.709 27.3778C280.623 28.2146 274.98 28.4476 272.882 27.8247C269.58 26.8439 267.691 25.0258 267.121 22.2795C266.28 18.2252 268.577 14.8356 272.857 13.8186C276.056 13.0581 279.642 13.1886 283.363 14.2004C286.295 14.9977 286.045 15.0599 286.862 13.3344C287.269 12.4763 287.545 11.6288 287.477 11.4511C287.337 11.087 284.175 10.1139 281.731 9.68284C279.485 9.28662 273.313 9.36537 271.466 9.81391ZM11.6586 13.5946C8.29159 14.2328 6.04999 15.7327 5.10141 17.9816C4.52343 19.3526 4.5 22.2782 5.05672 23.5965C5.93172 25.6692 8.19485 27.2423 11.2935 27.9318C12.883 28.2857 21.0123 28.1901 21.9238 27.807C22.5219 27.5554 22.5805 26.7148 22.4761 19.8553L22.3887 14.0987L20.4324 13.8009C17.0626 13.2872 13.6969 13.2082 11.6586 13.5946ZM41.1074 13.6505C40.2155 13.866 38.9535 14.3546 38.3028 14.7358C37.1218 15.428 35.5075 17.326 35.5075 18.0225C35.5075 18.3239 37.1324 18.3904 44.5 18.3904C50.6831 18.3904 53.4926 18.2996 53.4926 18.0999C53.4926 17.5576 52.8767 16.6218 51.9541 15.7621C49.5699 13.5412 45.132 12.6771 41.1074 13.6505ZM242.214 13.6505C241.322 13.866 240.06 14.3546 239.409 14.7358C238.228 15.428 236.614 17.326 236.614 18.0225C236.614 18.3239 238.239 18.3904 245.607 18.3904C255.44 18.3904 255.163 18.4427 253.96 16.8126C251.742 13.8066 246.927 12.5103 242.214 13.6505ZM150.264 13.7627C148.449 14.1448 146.503 15.5651 145.708 17.0873L145.321 17.8279L148.525 17.9048L151.73 17.9816L151.808 20.5023L151.886 23.0229H148.599H145.312L145.702 23.7723C146.387 25.0907 148.068 26.5273 149.469 26.9927C151.294 27.599 156.452 27.4483 157.89 26.7469C160.338 25.5536 162.1 22.6733 161.895 20.2001C161.677 17.5759 159.923 15.077 157.608 14.0936C156.449 13.6011 151.987 13.4 150.264 13.7627ZM93.5504 22.2234C89.0664 22.4907 87.2829 23.3306 87.2829 25.1751C87.2829 25.8994 87.4717 26.3755 87.9303 26.806C89.1476 27.9497 90.9984 28.2184 97.6592 28.219C101.043 28.2192 104.021 28.1391 104.277 28.0408C104.678 27.8868 104.731 27.5061 104.664 25.255L104.587 22.6477L103.769 22.4493C102.623 22.1716 96.6417 22.0392 93.5504 22.2234Z" fill="#769630" fill-opacity="1"/>
</svg>

<svg width="313" height="33" viewBox="0 0 313 33" fill="none" xmlns="http://www.w3.org/2000/svg">
<defs><style>.cls-1{fill:#a9c77e;}.cls-1,.cls-2{fill-opacity:0.85;}.cls-2{fill:#1e5494;}.cls-3{fill:#4c8e8b;}</style></defs>
<g id="katman_2" data-name="katman 2"><g id="katman_1-2" data-name="katman 1"><path class="cls-1" d="M250.49,9.82a30,30,0,0,0-9.73,0,12.31,12.31,0,0,0-8.31,6.59c-.79,1.69-.86,2.06-.84,4.43,0,3.3.69,5.13,2.6,7.22a14,14,0,0,0,7.31,3.85,33.67,33.67,0,0,0,11-.3c2.5-.7,5.86-2.09,5.86-2.42a10.19,10.19,0,0,0-1.8-3.36,3.05,3.05,0,0,0-1.42.44,20.28,20.28,0,0,1-9.06,1.93c-3.84,0-5.49-.49-7.46-2.22-1.13-1-2.33-2.78-2.33-3.47,0-.16,4.38-.27,11.51-.29,6.34,0,11.62-.15,11.76-.28.38-.38-.32-4.32-1.05-5.92A11.85,11.85,0,0,0,250.49,9.82Zm-4.88,8.57c-7.37,0-9-.07-9-.37,0-.69,1.62-2.59,2.8-3.28a12.29,12.29,0,0,1,2.8-1.09c4.72-1.14,9.53.16,11.75,3.16C255.16,18.44,255.44,18.39,245.61,18.39Z"/><path class="cls-2" d="M120.65,30.93c2.33,1.15,4,1.38,9.42,1.3l4.73-.08,0-2c0-1.13,0-2.19,0-2.37s-1.51-.34-5.39-.4c-4.91-.09-5.48-.15-6.48-.68a6.51,6.51,0,0,1-3.67-6.15,6.68,6.68,0,0,1,2.21-5.18c2.13-1.6,2.46-1.67,8.14-1.83,5.29-.15,5.31-.15,5.29-.76,0-.34,0-1.41-.06-2.39l-.05-1.77-4.57,0c-2.51,0-5.17.14-5.92.26a9.45,9.45,0,0,0-4.65,1.78,13.58,13.58,0,0,0-4.39,5.14,13.26,13.26,0,0,0-.53,7.87A11.72,11.72,0,0,0,120.65,30.93Z"/><path class="cls-2" d="M84.85,30.09c2.18,1.58,4.13,2,10,2.13,4.75.11,12.3-.38,14.06-.91.44-.14.48-.74.47-7.69a82,82,0,0,0-.27-8.53,7.62,7.62,0,0,0-5-4.92c-1.42-.52-2.27-.61-6.8-.67a41.19,41.19,0,0,0-7.36.32c-1.2.21-2.79.55-3.54.75L85,10.93l-.44,1.75a5.14,5.14,0,0,0-.25,2,15,15,0,0,0,3.7-.49c6.47-1.31,12.44-1.15,15,.41a4,4,0,0,1,1.78,3.28c0,.87,0,.88-1,.71a77.61,77.61,0,0,0-12.47-.2c-5,.7-7.76,2.43-8.56,5.27A6.27,6.27,0,0,0,84.85,30.09Zm8.7-7.87a67.89,67.89,0,0,1,10.22.23l.82.2.07,2.61c.07,2.25,0,2.63-.38,2.78s-3.24.18-6.62.18c-6.66,0-8.51-.27-9.73-1.41a2,2,0,0,1-.65-1.63C87.28,23.33,89.07,22.49,93.55,22.22Z"/><path class="cls-1" d="M289.28,14h4.83v6.08c0,8,.41,9.46,3.09,10.89,1.07.57,1.53.61,7.84.7l6.7.08.18-1.24a7.84,7.84,0,0,0,0-2.06l-.16-.82h-5.08c-7.91,0-8-.09-8.17-8.23l-.1-5.39h6.52c4.7,0,6.6-.09,6.84-.33a6.76,6.76,0,0,0,.16-3.6c-.14-.38-1-.43-6.82-.43h-6.66l0-3.25a20.14,20.14,0,0,0-.14-3.54c-.2-.32-3.75-.42-4.06-.11a19.22,19.22,0,0,0-.18,3.54V9.67h-4.84l-.13,1a12.23,12.23,0,0,0,0,2.18Z"/><path class="cls-2" d="M66.3,31.77V14.36l.89-.17c.48-.1,3.55-.25,6.81-.34,6.74-.19,6.32,0,6.15-2.67-.07-1-.21-1.35-.63-1.49s-3.37-.07-6.82,0-7.24.37-8.44.55l-2.18.34v21l2.11.08Z"/><path class="cls-1" d="M272.34,31.91a31.7,31.7,0,0,0,12.06-.54c3.49-.91,3.54-1,2.85-2.57-.92-2.12-.94-2.13-3.54-1.42-3.09.83-8.73,1.07-10.83.44-3.3-1-5.19-2.79-5.76-5.54-.84-4.05,1.46-7.44,5.74-8.46a21.32,21.32,0,0,1,10.5.38c2.94.8,2.69.86,3.5-.87a4.89,4.89,0,0,0,.62-1.88c-.14-.36-3.31-1.34-5.75-1.77a42.14,42.14,0,0,0-10.26.13c-3.66.89-6.83,3.21-8.09,5.92a12,12,0,0,0-.91,6.91C263.38,27.59,266.7,30.71,272.34,31.91Z"/><path class="cls-1" d="M128.15,18.05c0,.43,0,4.31,0,4.63s1.41.34,6,.34c5.48,0,6,0,6.16.48a15.08,15.08,0,0,0,3,5.16c2.46,2.52,5.52,3.63,10,3.63s7.34-1,9.88-3.56a11.71,11.71,0,0,0-4.36-19.32,25.19,25.19,0,0,0-8.95-.58,12.34,12.34,0,0,0-9.61,8.54c-.15.43-.7.48-6.17.48A45.66,45.66,0,0,0,128.15,18.05Zm23.66,2.45L151.73,18l-3.21-.08-3.2-.07.39-.74a7.24,7.24,0,0,1,4.55-3.33,20.73,20.73,0,0,1,7.35.33,7.48,7.48,0,0,1,4.28,6.11,7.24,7.24,0,0,1-4,6.55c-1.44.7-6.6.85-8.42.24a7.56,7.56,0,0,1-3.77-3.22l-.39-.75h6.58Z"/><path class="cls-1" d="M215.09,9.45c-2.63,0-5.2.08-5.73.13-1.8.19-7,.93-7.43,1.08s-.47.81-.4,10.54l.07,10.41H206l.07-8.76.07-8.75,1-.16c7.44-1.18,13.35-.74,15.11,1.11,1.31,1.36,1.4,1.93,1.52,9.55l.11,7.17,2.08-.08,2.09-.08L228.1,24c.08-8.7-.08-9.75-1.77-11.63C224.23,10,221.76,9.39,215.09,9.45Z"/><path class="cls-1" d="M192.45,10.22c-1.58-.57-2.31-.64-7.34-.71-3.07,0-6.38,0-7.36.16a42.93,42.93,0,0,0-6.49,1.06c-.25.15-.31,2.74-.25,10.54l.07,10.34,4.22.16V14.1l1-.17c.56-.09,2.76-.31,4.89-.49,6.48-.53,10,.31,11.16,2.69.45.91.52,1.91.64,8.26l.14,7.22,2.09.08,2.08.08.2-2.88c.32-4.77,0-12.85-.56-14.43A7.29,7.29,0,0,0,192.45,10.22Z"/><path class="cls-2" d="M25.66,31.18l1.4-.3L27,15.44,26.92,0h-2a6,6,0,0,0-2.25.26,25.64,25.64,0,0,0-.26,5V10l-.89-.17c-.49-.1-2.94-.25-5.46-.34-5.18-.18-7.17.13-10.22,1.61A11.43,11.43,0,0,0,.62,16.68a13.28,13.28,0,0,0,0,8.06c1.26,3.35,4.48,5.83,9.1,7C13.33,32.65,19.87,32.42,25.66,31.18ZM5.06,23.6A9.45,9.45,0,0,1,5.1,18c1-2.25,3.19-3.75,6.56-4.39a29.67,29.67,0,0,1,8.77.21l2,.3.09,5.76c.1,6.85,0,7.7-.56,8-.91.38-9,.48-10.63.12C8.19,27.24,5.93,25.67,5.06,23.6Z"/><path class="cls-2" d="M36.12,30.45c5,2.49,12.53,2.46,18.94-.07,1.41-.56,2.25-1.05,2.25-1.3a10,10,0,0,0-1.88-3.33,7,7,0,0,0-1.31.54,20.88,20.88,0,0,1-8.93,1.91c-3.43,0-5.36-.47-7.26-1.79-1-.72-2.69-3.09-2.69-3.87,0-.28,2.32-.35,11.51-.33l11.51,0V20a7.26,7.26,0,0,0-.88-4.06A12,12,0,0,0,48.91,9.7a26.71,26.71,0,0,0-9.86.33,14,14,0,0,0-6,3.62A11.45,11.45,0,0,0,31.2,25.14,11.76,11.76,0,0,0,36.12,30.45ZM38.3,14.74a12.37,12.37,0,0,1,2.81-1.09c4-1,8.46-.11,10.84,2.11a4.29,4.29,0,0,1,1.54,2.34c0,.2-2.81.29-9,.29-7.37,0-9-.07-9-.37C35.51,17.33,37.12,15.43,38.3,14.74Z"/><rect class="cls-3" x="128.15" y="17.64" width="23.74" height="5.38"/></g></g>
</svg>
